svgs/solid/monkey.svg

<svg xmlns="http://www.w3.org/2000/svg" viewBox="0 0 576 512"><!--! Font Awesome Pro 6.2.0 by @fontawesome - https://fontawesome.com License - https://fontawesome.com/license (Commercial License) Copyright 2022 Fonticons, Inc. --><path d="M160 416c0-89.7 61.4-165 144.5-186.1C329.1 265 369.9 288 416 288c9.8 0 19.4-1 28.7-3L526.5 363c31.6 30.2 49.5 72 49.5 115.7V480c0 17.7-14.3 32-32 32s-32-14.3-32-32v-1.2c0-26.2-10.7-51.3-29.7-69.4L416 346.1V448h32c17.7 0 32 14.3 32 32s-14.3 32-32 32H416 160C71.6 512 0 440.4 0 352V110.1C0 49.3 49.3 0 110.1 0h10.4c57.2 0 102.8 47.8 100.1 104.9c-2.3 48.2-38.6 88-86.4 94.6l-1.9 .3c-17.5 2.4-33.7-9.8-36.1-27.3s9.8-33.7 27.3-36.1l1.9-.3c17.3-2.4 30.4-16.7 31.2-34.2c1-20.6-15.5-37.9-36.2-37.9H110.1C84.7 64 64 84.7 64 110.1V352c0 53 43 96 96 96V416zM416 256c-29.3 0-55.9-12.2-74.8-31.7c-9-9.3-16.2-20.2-21.3-32.3c-35.3 0-64-28.7-64-64s28.6-64 64-64c15.7-37.6 52.8-64 96-64s80.4 26.4 96 64c35.3 0 64 28.7 64 64s-28.6 64-64 64c-15.7 37.6-52.8 64-96 64zM384 64c-26.5 0-48 21.5-48 48c0 23.8 17.3 43.5 40 47.3V168c0 22.1 17.9 40 40 40s40-17.9 40-40v-8.7c22.7-3.8 40-23.6 40-47.3c0-26.5-21.5-48-48-48H384zm0 64c-8.8 0-16-7.2-16-16s7.2-16 16-16s16 7.2 16 16s-7.2 16-16 16zm80-16c0 8.8-7.2 16-16 16s-16-7.2-16-16s7.2-16 16-16s16 7.2 16 16z"/></svg>

<svg xmlns="http://www.w3.org/2000/svg" viewBox="0 0 576 512"><!--! Font Awesome Pro 6.1.2 by @fontawesome - https://fontawesome.com License - https://fontawesome.com/license (Commercial License) Copyright 2022 Fonticons, Inc. --><path d="M160 416C160 326.3 221.4 251 304.5 229.9C329.1 265 369.9 288 416 288C425.8 288 435.4 286.1 444.7 284.1L526.5 363C558.1 393.2 576 435 576 478.8V480C576 497.7 561.7 512 544 512C526.3 512 512 497.7 512 480V478.8C512 452.5 501.3 427.4 482.3 409.3L416 346.1V448H448C465.7 448 480 462.3 480 480C480 497.7 465.7 512 448 512H160C71.63 512 0 440.4 0 352V110.1C0 49.31 49.3 .0003 110.1 .0003H120.5C177.7 .0003 223.3 47.77 220.6 104.9C218.4 153.1 182 192.8 134.2 199.4L132.4 199.7C114.9 202.1 98.71 189.9 96.3 172.4C93.89 154.9 106.1 138.7 123.6 136.3L125.5 136C142.8 133.7 155.9 119.3 156.7 101.9C157.7 81.26 141.2 64 120.5 64H110.1C84.65 64 63.1 84.65 63.1 110.1V352C63.1 405 106.1 448 159.1 448L160 416zM368 112C368 103.2 375.2 96 384 96C392.8 96 400 103.2 400 112C400 120.8 392.8 128 384 128C375.2 128 368 120.8 368 112zM464 112C464 120.8 456.8 128 448 128C439.2 128 432 120.8 432 112C432 103.2 439.2 96 448 96C456.8 96 464 103.2 464 112zM416 256C386.7 256 360.1 243.8 341.2 224.3C332.3 215 325 204.1 319.1 192C284.6 191.1 256 163.3 256 128C256 92.66 284.6 64.02 319.1 64C335.6 26.42 372.7 0 416 0C459.3 0 496.4 26.42 512 64C547.4 64.02 576 92.66 576 128C576 163.3 547.4 191.1 512 192C496.4 229.6 459.3 256 416 256zM384 64C357.5 64 336 85.49 336 112C336 135.8 353.3 155.5 376 159.3V168C376 190.1 393.9 208 416 208C438.1 208 456 190.1 456 168V159.3C478.7 155.5 496 135.8 496 112C496 85.49 474.5 64 448 64H384z"/></svg>
